!!!COM: Bach, Johann Sebastian
!!!OPR: Das wohltemperirte Clavier, Band II
!!!XEN: Well-Tempered Clavier, Volume II
!!!OTL: Prelude in B-flat Minor
!!!OMV: Prelude XXII
!!!SCT: BWV 891
!!!SCA: Thematisch-systematisches Verzeichnis der musikalischen Werke Johann Sebastian Bach: Bach-Werke-Verzeichnis (Schmieder)
!!!YOR: Bach Gesellschaft Edition xiv
!!!EED: Walter Hewlett
!!!ENC: Walter Hewlett
!!!CDT: 1685/3//-1750/7/28/
!!!OCY: Deutschland
!!!YEC: Copyright (c) 1994, 2000 Center for Computer Assisted Research in the Humanities
!!!YEM: Rights to all derivative editions reserved
!!!YEM: Refer to licensing agreement for further details
!!!YEN: United States of America
**kern
*I:
*clefG6
*k[b-e-a-d-g-]
*b-:
*M4/4
=1-
*^
8dd-\L	2BB-/
8cc\	.
8b-\	.
8an\J	.
4b-m\xx	[2B-\
4f/	.
=2	=2
4g-/	2B-\]
4e-/	.
4cT/xx	2An\
4f/	.
=3	=3
*^	*
2r	4d-/	8B-\L
.	.	8A-\
.	4B-/	8G-\
.	.	8F\J
8bb-/L	4b-\	8G-\L
8aa-/	.	8F\
8gg-/	4b-\	8E-\
8ff/J	.	8D-\J
=4	=4	=4
8gg-/L	4b-\	8E-/L
8ff/	.	8D-/
8ee-/	8an\L	8C/
8dd-/J	8b-\J	8BB-/J
8cc/L	4cc\	8AAn/L
8ff/	.	8FF/
8ee-/	4cc\	8GGn/
8ff/J	.	8AA/J
=5	=5	=5
4dd-/	4cc\	8BB-/L
.	.	8C/
4f/	8b-\L	8D-/
.	8an\J	8E-/J
8r	[2b-\	4D-\
8dd-/L	.	.
8cc/	.	4G-\
8dd-/J	.	.
=6	=6	=6
4ee-/	8b-\L]	8C\L
.	8a-\	8D-\
4b-/	8g-\	8E-\
.	8f\J	8F\J
2ccT/xx	8g-\L	4E-\
.	8e-\	.
.	8f\	4A-\
.	[8g-\J	.
=7	=7	=7
4dd-/	8g-\L]	4D-\
.	8f\	.
4r	8gn\	4C/
.	8an\J	.
2r	8b-\L	4D-\
.	8cc\	.
.	8dd-\	4BB-/
.	8b-\J	.
=8	=8	=8
8aa-/L	4cc\	4F\
8ggn/	.	.
8ff/	4c\	4A-\
8een/J	.	.
4ffM/xx	[2f\	8d-\L
.	.	8c\
4cc/	.	8B-\
.	.	8A-\J
=9	=9	=9
4dd-/	2f\]	8B-\L
.	.	8Gn\
4b-/	.	8A-\
.	.	8B-\J
4gnt/xx	2en\	8c\L
.	.	8B-\
4cc/	.	8A-\
.	.	8G\J
=10	=10	=10
4a-/	8f\L	[2F\
.	8en\	.
4f/	8f\	.
.	8gn\J	.
4ff/	8a-\L	8F\L]
.	8b-\	8Gn\
4ff/	8cc\	8A-\
.	8a-\J	8F\J
=11	=11	=11
4ffM/xx	8b-\L	8Gn\L
.	8a-\	8A-\J
8een/L	8gn\	4B-\
8ff/J	8a-\J	.
4ggn/	8b-\L	4En\
.	8cc\	.
4gg/	8dd-\	8F\L
.	8b-\J	8G\J
=12	=12	=12
4ggnm/xx	2cc\	8A-\L
.	.	8B-\
8ff/L	.	8A-\
8gg/J	.	8Gn\J
4aa-/	4r	8F\L
.	.	8E-\
4aa-/	8ff\L	8D-\
.	8cc\J	8F\J
=13	=13	=13
4aa-M/xx	8dd-\L	2BB-/
.	8ee-\	.
4ff/	8dd-\	.
.	8cc\J	.
4ggn/	8b-\L	2r
.	8a-\	.
4bb-/	8gn\	.
.	8b-\J	.
=14	=14	=14
4bb-/	4en\	8r
.	.	8d-\L
4eent/xx	4gn\	8c\
.	.	8B-\J
[2ff/	4c\	8A-\L
.	.	8Gn\
.	4cc\	8F\
.	.	8A-\J
=15	=15	=15
2ff/]	8b-\L	4D-/
.	8cc\	.
.	8dd-\	4BB-/
.	8b-\J	.
2eent/xx	8gn\L	4C/
.	8dd-\	.
.	8cc\	4CC/
.	8b-\J	.
=16	=16	=16
4ff/	2a-\	8FF/L
.	.	8C/
4cc/	.	8Dn/
.	.	8En/J
8a-/L	4r	8F\L
8ee-/	.	8G-\
8ddn/	4c-\	8A-\
8ee-/J	.	8F\J
=17	=17	=17
4ff/	8B-\L	2Dn\
.	8cn\	.
4b-/	8dn\	.
.	8e-\J	.
4a-/	8f\L	4r
.	8g-\	.
[4ff/	8a-\	4BB-/
.	8f\J	.
=18	=18	=18
4ff/]	2g-\	8EE-/L
.	.	8BB-/
8ee-/L	.	8C/
8ff/J	.	8Dn/J
4gg-m/xx	4r	8E-\L
.	.	8F\
4b-/	[4g-\	8G-\
.	.	8E-\J
=19	=19	=19
8a-/L	4g-\]	4C\
8b-/	.	.
8cc/	4B--/	4E-\
8dd-/J	.	.
8ee-/L	4A-/	4C\
8ff/	.	.
8gg-/	4cc\	4AA-\
8ee-/J	.	.
=20	=20	=20
4ff/	4dd-\	8DD-/L
.	.	8AA-/
4g-S/xx	4e-\	8BB-/
.	.	8C/J
4f/	4d-\	8D-\L
.	.	8E-\
4dd-/	4r	8F\
.	.	8D-\J
=21	=21	=21
2.b-/	4r	8G-\L
.	.	8A-\
.	4d-\	8G-\
.	.	8F\J
.	[2g-\	8E-\L
.	.	8D-\
8ee-/L	.	8C\
8dd-/J	.	8E-\J
=22	=22	=22
2.ccM/xx	4g-\]	8AAn/L
.	.	8FF/
.	8f\L	8GGn/
.	8e-\J	8AA/J
.	2d-\	8BB-/L
.	.	8C/
[4b-/	.	8D-/
.	.	8BB-/J
=23	=23	=23
8b-/L]	2c\	4E-\
8cc/	.	.
8dd-/	.	4C/
8ee-/J	.	.
8an/L	2r	4F\
8gg-/	.	.
8ff/	.	4FF/
8ee-/J	.	.
=24	=24	=24
8dd-/L	8r	4BB-/
8ff/	8B-\L	.
8ee-/	8c\	4r
8dd-/J	8d-\J	.
8cc/L	8e-\L	4r
8b-/	8f\	.
8an/	8g-\	4c\
8cc/J	8e-\J	.
=25	=25	=25
4b-/	4f\	8d-\L
.	.	8c\
8dd-/L	4r	8B-\
8cc/J	.	8An\J
4dd-/	8dd-\L	4B-m\xx
.	8cc\	.
4dd-/	8b-\	4F\
.	8an\J	.
=26	=26	=26
4dd-/	[2b-\	4G-\
8cc/L	.	4E-\
8dd-/J	.	.
4ee-/	8b-\L]	4Ct/xx
.	8an\	.
4ee-/	8gn\	4F\
.	8a\J	.
=27	=27	=27
4ee-/	4b-\	4D-\
8dd-/L	4f\	4BB-/
8ee-/J	.	.
8ff/L	4d-\	4B-\
8aa-/	.	.
8gg-/	8e-\L	4B-\
8ff/J	8f\J	.
=28	=28	=28
8ee-/L	[2g-\	4B-\
8dd-/	.	.
8cc/	.	8A-\L
8ee-/J	.	8B-\J
2a-/	8g-\L]	4c\
.	8f\	.
.	8e-\	4c\
.	8g-\J	.
=29	=29	=29
2dd-/	8f\L	4c\
.	8e-\	.
.	8d-\	8B-\L
.	8e-\J	8c\J
2r	8f\L	4d-\
.	8g-\	.
.	8a-\	4d-\
.	8f\J	.
=30	=30	=30
8r	2g-\	4d-\
8b-/L	.	.
8cc/	.	8c\L
8dd-/J	.	8B-\J
8ee-/L	4r	4c\
8ff/	.	.
8gg-/	4d-\	4e-\
8ee-/J	.	.
=31	=31	=31
8ff/L	8c\L	2A-\
8ee-/	8g-\	.
8dd-/	8f\	.
8cc/J	8e-\J	.
4dd-m/xx	[2f\	8r
.	.	8D-\L
4a-/	.	8E-\
.	.	8F\J
=32	=32	=32
4b-/	4f\]	8G-\L
.	.	8A-\
4g-/	8e-\L	8B-\
.	8d-\J	8G-\J
4e-T/xx	8c\L	2A-\
.	8d-\	.
4a-/	8B-\	.
.	8c\J	.
=33	=33	=33
4f/	4d-\	8D-\L
.	.	8F\
4d-/	4r	8G-\
.	.	8A-\J
4dd-/	8b-\L	8B-\L
.	8a-\	8c\
4dd-/	8g-\	8d-\
.	8f\J	8B-\J
=34	=34	=34
4dd-m/xx	4g-\	8e-\L
.	.	8f\
8cc/L	4e-\	8e-\
8dd-/J	.	8d-\J
4ee-/	8a-\L	4c\
.	8g-\	.
4ee-/	8f\	4A-\
.	8e-\J	.
=35	=35	=35
4ee-m/xx	8f\L	2d-\
.	8e-\	.
8dd-/L	8f\	.
8ee-/J	8g-\J	.
4ff/	8a-\L	4r
.	8b-\	.
4ff/	8cc\	4A-\
.	8a-\J	.
=36	=36	=36
4ff/	[1dd-\	8B-\L
.	.	8A-\
8ee-/L	.	8Gn\
8ff/J	.	8F\J
8ggn/L	.	8E-\L
8aa-/	.	8D-\
8bb-/	.	8C\
8gg/J	.	8BB-\J
=37	=37	=37
[1aa-/	4dd-\]	8AA-/L
.	.	8BB-/
.	8ee-\L	8C/
.	8dd-\J	8D-/J
.	4cc\	8E-\L
.	.	8F\
.	4ee-\	8G-\
.	.	8E-\J
=38	=38	=38
1aa-/_	4a-\	8F\L
.	.	8E-\
.	8ff\L	8D-\
.	8ee-\J	8E-\J
.	4dd-\	8F\L
.	.	8Gn\
.	4cc\	8A-\
.	.	8F\J
=39	=39	=39
4aa-/]	2b-\	8d-\L
.	.	8c\
8ggn/L	.	8B-\
8aa-/J	.	8A-\J
4bb-/	4r	8Gn\L
.	.	8F\
[4dd-m/xx	[4b-\	8E-\
.	.	8G\J
=40	=40	=40
4dd-/]	4b-\]	8C\L
.	.	8F\
8cc/L	4a-\	8E-\
8dd-/J	.	8D-\J
4ee-/	4r	8C/L
.	.	8BB-/
[4g-m/xx	[4e-\	8AA-/
.	.	8C/J
=41	=41	=41
8g-/L]	4e-\]	4DD-/
8f/	.	.
8gn/	8d-\L	4F\
8a-/J	8c\J	.
8b-/L	8B-/L	4D-\
8cc/	8A-/	.
8dd-/	8Gn/	4E-\
8b-/J	8B-/J	.
=42	=42	=42
2cc/	8A-/L	8A-\L
.	8e-\	8Gn\
.	8f\	8F\
.	8gn\J	8E-\J
2r	8a-\L	4F\
.	8b-\	.
.	8cc\	4C/
.	8a-\J	.
=43	=43	=43
8r	4ff\	4D-/
8ee-/L	.	.
8dd-/	4r	4BB-/
8cc/J	.	.
8b-/L	2r	4GGn/
8a-/	.	.
8gn/	.	4E-\
8b-/J	.	.
=44	=44	=44
2e-/	4r	8C/L
.	.	8BB-/
.	4A-\	8AA-/
.	.	8BB-/J
4r	4e-\	8C\L
.	.	8Dn\
4g-/	4e-\	8E-\
.	.	8C\J
=45	=45	=45
4f/	4e-\	8Dn\L
.	.	8C\
4b-/	8dn\L	8BB-\
.	8e-\J	8C\J
4r	4f\	8D\L
.	.	8E-\
4a-/	4f\	8F\
.	.	8D\J
=46	=46	=46
4g-/	4f\	8E-\L
.	.	8F\
4cc-/	8e-\L	8G-\
.	8f\J	8F\J
4r	4g-\	8E-\L
.	.	8D-\
4b-/	4g-\	8C-\
.	.	8BB-\J
=47	=47	=47
4a-/	4g-\	8C-/L
.	.	8E-/
4dd-/	8f\L	8D-/
.	8g-\J	8C-/J
4r	4a-\	8BB-/L
.	.	8AA-/
4cc-/	[4a-\	8GG-/
.	.	8FF/J
=48	=48	=48
2b-/	8a-\L]	4GG-/
.	8a-\	.
.	8g-\	4AA-/
.	8f\J	.
2r	4g-m\xx	8BB-/L
.	.	8GG-/
.	4d-\	8AA-/
.	.	8BB-/J
=49	=49	=49
1r	4e-\	8C-\L
.	.	8D-\
.	4c-\	8E-\
.	.	8C-\J
.	4A-T\xx	8D-\L
.	.	8E-\
.	4d-\	8F\
.	.	8D-\J
=50	=50	=50
4r	2B-\	8G-\L
.	.	8A-\
4dd-/	.	8G-\
.	.	8F\J
4gg-/	4r	8E-\L
.	.	8F\
4gg-/	4b-\	8G-\
.	.	8E-\J
=51	=51	=51
4gg-m/xx	2.cc-\	8A-\L
.	.	8B-\
8ff/L	.	8A-\
8gg-/J	.	8G-\J
4aa-/	.	8F\L
.	.	8G-\
4aa-/	4cc-\	8A-\
.	.	8F\J
=52	=52	=52
4aa-M/xx	2.b-\	8Dn/L
.	.	8BB-/
8gg-/L	.	8C/
8ff/J	.	8D/J
[2gg-/	.	8E-\L
.	.	8F\
.	4ee-\	8G-\
.	.	8E-\J
=53	=53	=53
4gg-/]	4a-\	8c-\L
.	.	8B-\
8ccc-/L	4r	8A-\
8bb-/J	.	8B-\J
8aa-/L	4r	2c-\
8gg-/	.	.
8ff/	[4a-\	.
8aa-/J	.	.
=54	=54	=54
8ddn/L	8a-\L]	1B-\
8ccn/	8b-\	.
8dd/	8a-\	.
8ee-/J	8g-\J	.
8ff/L	8f\L	.
8gg-/	8e-\	.
8aa-/	8dn\	.
8ff/J	8f\J	.
=55	=55	=55
8gg-/L	4e-\	4r
8ff/	.	.
8ee-/	4r	8E-\L
8ddn/J	.	8F\J
4ee-m/xx	2r	8G-\L
.	.	8E-\
4b-/	.	8G-\
.	.	8B-\J
=56	=56	=56
4cc-/	1r	8e-\L
.	.	8dn\J
4a-/	.	2e-\
4ft/xx	.	.
4b-/	.	4dn\
=57	=57	=57
4g-/	2r	8e-\L
.	.	8d-\
4e-/	.	8c-\
.	.	8B-\J
4ee-/	8ee-\L	8c-\L
.	8dd-\	8B-\
4ee-/	8cc-\	8A-\
.	8b-\J	8G-\J
=58	=58	=58
4ee-m/xx	8cc-\L	8A-\L
.	8b-\	8G-\
8ddn/L	8a-\	8F\
8ee-/J	8g-\J	8E-\J
4ff/	4f\	8Dn/L
.	.	8BB-/
4ff/	4b-\	8Cn/
.	.	8D/J
=59	=59	=59
4ffM/xx	4g-\	8E-\L
.	.	8F\
8ee-/L	4b-\	8G-\
8ddn/J	.	8A-\J
[2ee-/	8r	4G-\
.	8g-\L	.
.	8f\	4c-\
.	8g-\J	.
=60	=60	=60
8ee-/L]	4a-\	8F\L
8dd-/	.	8G-\
8cc-/	4e-\	8A-\
8b-/J	.	8B-\J
8cc-/L	2f\	4A-\
8a-/	.	.
8b-/	.	4d-\
[8cc-/J	.	.
=61	=61	=61
8cc-/L]	2g-\	4G-\
8b-/	.	.
8ccn/	.	4F\
8ddn/J	.	.
8ee-/L	4r	4G-\
8ff/	.	.
8gg-/	4cc\	4E-\
8ee-/J	.	.
=62	=62	=62
4ff/	8dd-\L	4B-\
.	8cc\	.
4f/	8b-\	4d-\
.	8an\J	.
[2b-/	4b-\	8G-\L
.	.	8F\
.	4f\	8E-\
.	.	8D-\J
=63	=63	=63
2b-/]	4g-\	8E-\L
.	.	8C\
.	4e-\	8D-\
.	.	8E-\J
2anT/xx	4c\	8F\L
.	.	8E-\
.	4f\	8D-\
.	.	8C\J
=64	=64	=64
8b-/L	4d-\	[2BB-/
8an/	.	.
8b-/	4B-\	.
8cc/J	.	.
8dd-/L	4b-\	8BB-/L]
8ee-/	.	8C/
8ff/	4b-\	8D-/
8dd-/J	.	8BB-/J
=65	=65	=65
8ee-/L	4b-\	8C/L
8dd-/	.	8D-/J
8cc/	8an\L	4E-\
8dd-/J	8b-\J	.
8ee-/L	4cc\	4AAn/
8ff/	.	.
8gg-/	4cc\	8BB-/L
8ee-/J	.	8C/J
=66	=66	=66
2ff/	4cc\	8D-\L
.	.	8E-\
.	8b-\L	8D-\
.	8cc\J	8C\J
4r	4dd-\	8BB-/L
.	.	8AA-/
8bb-/L	4dd-\	8GG-/
8ff/J	.	8BB-/J
=67	=67	=67
8gg-/L	4dd-\	4EE-/
8aa-/	.	.
8gg-/	4B-/	4r
8ff/J	.	.
8ee-/L	4c/	2r
8dd-/	.	.
8cc/	4e-\	.
8ee-/J	.	.
=68	=68	=68
4an/	4e-\	8r
.	.	8G-\L
4cc/	4An/	8F\
.	.	8E-\J
4ff/	4B-/	8D-\L
.	.	8C\
4dd-/	4b-\	8BB-\
.	.	8D-\J
=69	=69	=69
8ee-/L	2b-\	4GG-/
8ff/	.	.
8gg-/	.	4EE-/
8ee-/J	.	.
8cc/L	2anT\xx	4FF/
8gg-/	.	.
8ff/	.	4F\
8ee-/J	.	.
=70	=70	=70
2dd-/	8b-\L	8BB-\L
.	8f\J	8C\
.	2b-\	8D-\
.	.	8E-\J
4cc/	.	8F\L
.	.	8G-\
4ff/	[4a-\	8A-\
.	.	8F\J
=71	=71	=71
2b-/	8a-\L]	8G-\L
.	8d-\J	8A-\
.	2g-\	8B-\
.	.	8c\J
4a-/	.	8d-\L
.	.	8e-\
4dd-/	[4f\	8d-\
.	.	8c\J
=72	=72	=72
[1g-/	4f\]	8B-\L
.	.	8A-\
.	8e-\L	8G-\
.	8d-\J	8F\J
.	4c\	8E-\L
.	.	8F\
.	4B-/	8G-\
.	.	8E-\J
=73	=73	=73
8g-/L]	4An/	[1F\
8f/	.	.
8e-/	2B-/	.
8d-/J	.	.
8c/L	.	.
8d-/	.	.
8e-/	4A/	.
8c/J	.	.
=74	=74	=74
8d-/L	8B-/L	1F\_
8e-/	8c\	.
8f/	8d-\	.
8gn/J	8B-\J	.
8an/L	8c\L	.
8b-/	8d-\	.
8cc/	8e-\	.
8a/J	8c\J	.
=75	=75	=75
8b-/L	8d-\L	2F\]
8cc/	8e-\	.
8dd-/	8f\	.
8b-/J	8gn\J	.
8cc/L	8an\L	[2f\
8dd-/	8b-\	.
8ee-/	8cc\	.
8cc/J	8a\J	.
=76	=76	=76
8dd-/L	8b-\L	1f\_
8ee-/	8cc\	.
8ff/	8dd-\	.
8ggn/J	8b-\J	.
8aan/L	8cc\L	.
8bb-/	8dd-\	.
8ccc/	8ee-\	.
8aa/J	8cc\J	.
=77	=77	=77
[1bb-/	8ddn\L	8f\L]
.	8cc\	8g-\
.	8dd\	8f\
.	8ee-\J	8e-\J
.	8ff\L	8dn\L
.	8gg-\	8c\
.	8aa-\	8B-\
.	8ff\J	8d\J
=78	=78	=78
1bb-/_	4gg-\	8E-\L
.	.	8F\
.	8ff\L	8G-\
.	8ee-\J	8A-\J
.	4ddn\	8B-\L
.	.	8c\
.	4ff\	8dn\
.	.	8B-\J
*	*	*clefG6
=79	=79	=79
1bb-/_	4b-\	8g-/L
.	.	8f/
.	8gg-\L	8e-/
.	8ff\J	8f/J
.	4ee-\	8g-/L
.	.	8a-/
.	4dd-\	8b-/
.	.	8g-/J
=80	=80	=80
4bb-/]	2cc\	8e-/L
.	.	8d-/
8aan/L	.	8c/
8bb-/J	.	8B-/J
*	*	*clefG6
4ccc/	4r	8An\L
.	.	8Gn\
[4ee-/	[4cc\	8F\
.	.	8A\J
=81	=81	=81
4ee-/]	4cc\]	8D-\L
.	.	8G-\
8dd-/L	4b-\	8F\
8ee-/J	.	8E-\J
4ff/	4r	8D-/L
.	.	8C/
8ee-/L	4g-\	8BB-/
8an/J	.	8C/J
=82	=82	=82
4.b-/	4.f\	8D-\L
.	.	8C\
.	.	8D-\
8cc/	8g-\	8E-\J
4.anT/xx	2c\	8F\L
.	.	8E-\
.	.	8F\
8b-/	.	8FF\J
=83	=83	=83
1b-;/	1dn\	1BB-;/
==|!	==|!	==|!
*-	*-	*-
!!!RWG: Key is interpreted using the Humdrum key tool.
!!!AFT: stage2
!!!END: 1994/02/17/
!!format changes:
!!content changes:
!!public access: complete
!!!KEY: 1533756567
!!!EMD: Converted from MuseData to Humdrum Dec 19, 2000, by Andreas Kornstaedt using muse2kern.
